;FLAVOR:Marlin
;TIME:423
;Filament used: 0.412775m
;Layer height: 0.2
;MINX:91.262
;MINY:82.513
;MINZ:0.2
;MAXX:118.725
;MAXY:127.482
;MAXZ:10
;Generated with Cura_SteamEngine 4.5.0
M140 S70
M105
M190 S70
M104 S220
M105
M109 S220
M82 ;absolute extrusion mode
G21 ;metric values
G90 ;absolute positioning
M82 ;set extruder to absolute mode
M107 ;start with the fan off
G28 X0 Y0 ;move X/Y to min endstops
G28 Z0 ;move Z to min endstops
G1 Z15.0 F100 ;move the platform down 15mm
G92 E0 ;zero the extruded length
G1 F200 E3 ;extrude 3mm of feed stock
G92 E0 ;zero the extruded length again
G1 F100
G0 Y20 F100
M117 Printing...
G5
G92 E0
G92 E0
G1 F2400 E-6
;LAYER_COUNT:50
;LAYER:0
M106 S255
M204 S3000
M205 X10 Y10
G1 F600 Z0.275
G0 F2400 X96.388 Y86.536 Z0.275
M204 S1800
M205 X8 Y8
;TYPE:SKIRT
G1 F600 Z0.2
G1 F2400 E0
G1 X96.979 Y85.881 E0.04108
G1 X97.424 Y85.452 E0.06986
G1 X98.065 Y84.911 E0.10892
G1 X98.592 Y84.522 E0.13942
G1 X99.123 Y84.17 E0.16908
G1 X99.568 Y83.913 E0.19301
G1 X100.399 Y83.495 E0.23633
G1 X100.912 Y83.283 E0.26217
G1 X101.802 Y82.976 E0.30601
G1 X102.336 Y82.835 E0.33173
G1 X103.593 Y82.603 E0.39125
G1 X104.213 Y82.543 E0.42025
G1 X104.829 Y82.513 E0.44897
G1 X105.35 Y82.52 E0.47323
G1 X106.294 Y82.587 E0.5173
G1 X106.814 Y82.663 E0.54177
G1 X108 Y82.923 E0.59831
G1 X108.589 Y83.104 E0.627
G1 X109.143 Y83.303 E0.65441
G1 X109.68 Y83.535 E0.68165
G1 X110.589 Y84 E0.72919
G1 X111.029 Y84.269 E0.75321
G1 X111.769 Y84.781 E0.79511
G1 X112.212 Y85.137 E0.82157
G1 X112.945 Y85.803 E0.86769
G1 X113.304 Y86.183 E0.89203
G1 X114.069 Y87.121 E0.94839
G1 X114.428 Y87.643 E0.97789
G1 X114.747 Y88.156 E1.00602
G1 X115.007 Y88.643 E1.03173
G1 X115.381 Y89.448 E1.07306
G1 X115.599 Y90.026 E1.10182
G1 X115.889 Y90.977 E1.14812
G1 X116 Y91.466 E1.17147
G1 X116.163 Y92.463 E1.21851
G1 X116.206 Y92.98 E1.24267
G1 X116.274 Y94.278 E1.30319
G1 X116.315 Y95.347 E1.353
G1 X116.49 Y97.991 E1.47639
G1 X116.741 Y100.651 E1.6008
G1 X117.064 Y103.267 E1.72354
G1 X117.461 Y105.872 E1.84624
G1 X117.941 Y108.523 E1.97168
G1 X118.503 Y111.234 E2.1006
G1 X118.619 Y111.987 E2.13608
G1 X118.695 Y112.717 E2.17026
G1 X118.725 Y113.277 E2.19637
G1 X118.723 Y113.857 E2.22338
G1 X118.693 Y114.76 E2.26545
G1 X118.634 Y115.424 E2.29649
G1 X118.548 Y116.008 E2.32397
G1 X118.354 Y116.97 E2.36967
G1 X118.213 Y117.496 E2.39503
G1 X117.954 Y118.322 E2.43534
G1 X117.754 Y118.844 E2.46137
G1 X117.555 Y119.319 E2.48535
G1 X117.267 Y119.929 E2.51676
G1 X116.897 Y120.616 E2.55309
G1 X116.619 Y121.077 E2.57816
G1 X116.275 Y121.591 E2.60696
G1 X115.757 Y122.292 E2.64754
G1 X115.409 Y122.708 E2.6728
G1 X114.798 Y123.377 E2.71499
G1 X114.381 Y123.781 E2.74202
G1 X113.673 Y124.401 E2.78585
G1 X113.179 Y124.782 E2.81489
G1 X112.469 Y125.277 E2.8552
G1 X111.954 Y125.592 E2.88331
G1 X111.126 Y126.044 E2.92723
G1 X110.657 Y126.263 E2.95134
G1 X109.754 Y126.636 E2.99683
G1 X109.23 Y126.814 E3.0226
G1 X108.294 Y127.085 E3.06797
G1 X107.693 Y127.216 E3.09661
G1 X106.891 Y127.355 E3.13452
G1 X106.307 Y127.421 E3.16188
G1 X105.401 Y127.479 E3.20416
G1 X104.837 Y127.482 E3.23042
G1 X104.334 Y127.469 E3.25385
G1 X103.525 Y127.405 E3.29164
G1 X102.865 Y127.319 E3.32263
G1 X102.057 Y127.167 E3.36091
G1 X101.381 Y127.001 E3.39332
G1 X100.572 Y126.751 E3.43275
G1 X99.962 Y126.529 E3.46298
G1 X99.259 Y126.229 E3.49857
G1 X98.619 Y125.915 E3.53176
G1 X98.167 Y125.668 E3.55575
G1 X97.659 Y125.358 E3.58346
G1 X96.938 Y124.873 E3.62392
G1 X96.448 Y124.498 E3.65265
G1 X95.784 Y123.936 E3.69316
G1 X95.339 Y123.513 E3.72175
G1 X94.697 Y122.836 E3.76519
G1 X94.315 Y122.379 E3.79293
G1 X93.798 Y121.702 E3.83259
G1 X93.508 Y121.272 E3.85674
G1 X93.212 Y120.803 E3.88257
G1 X92.941 Y120.33 E3.90795
G1 X92.664 Y119.79 E3.93621
G1 X92.334 Y119.068 E3.97318
G1 X92.113 Y118.5 E4.00156
G1 X91.823 Y117.632 E4.04417
G1 X91.687 Y117.128 E4.06848
G1 X91.57 Y116.637 E4.09198
G1 X91.471 Y116.133 E4.1159
G1 X91.387 Y115.57 E4.1424
G1 X91.298 Y114.746 E4.181
G1 X91.271 Y114.191 E4.20687
G1 X91.262 Y113.672 E4.23104
G1 X91.274 Y113.149 E4.2554
G1 X91.316 Y112.55 E4.28336
G1 X91.419 Y111.661 E4.32503
G1 X91.513 Y111.14 E4.34968
G1 X91.857 Y109.477 E4.42876
G1 X92.361 Y106.85 E4.55331
G1 X92.794 Y104.192 E4.67871
G1 X93.139 Y101.614 E4.79983
G1 X93.42 Y98.947 E4.9247
G1 X93.623 Y96.306 E5.04804
G1 X93.724 Y94.39 E5.13738
G1 X93.776 Y93.162 E5.19461
G1 X93.826 Y92.591 E5.2213
G1 X93.91 Y91.959 E5.25099
G1 X94.076 Y91.13 E5.29036
G1 X94.253 Y90.476 E5.32191
G1 X94.545 Y89.635 E5.36336
G1 X94.796 Y89.047 E5.39313
G1 X95.173 Y88.303 E5.43197
G1 X95.484 Y87.777 E5.46042
G1 X95.96 Y87.081 E5.49968
G1 X96.388 Y86.536 E5.53195
M204 S3000
M205 X10 Y10
G0 X96.828 Y86.882
M204 S1800
M205 X8 Y8
G1 X97.368 Y86.285 E5.56943
G1 X97.813 Y85.856 E5.59822
G1 X98.398 Y85.361 E5.6339
G1 X98.925 Y84.972 E5.6644
G1 X99.409 Y84.651 E5.69144
G1 X100.192 Y84.216 E5.73315
G1 X100.825 Y83.922 E5.76565
G1 X101.506 Y83.661 E5.79961
G1 X102.16 Y83.457 E5.83151
G1 X102.925 Y83.276 E5.86812
G1 X103.646 Y83.16 E5.90212
G1 X104.266 Y83.1 E5.93112
G1 X104.829 Y83.073 E5.95737
G1 X106.221 Y83.142 E6.02227
G1 X107.161 Y83.295 E6.06661
G1 X107.835 Y83.459 E6.09891
G1 X108.424 Y83.64 E6.12761
G1 X108.93 Y83.821 E6.15263
G1 X109.437 Y84.04 E6.17835
G1 X110.304 Y84.481 E6.22364
G1 X111.06 Y84.961 E6.26534
G1 X111.605 Y85.363 E6.29687
G1 X112.183 Y85.853 E6.33216
G1 X112.687 Y86.341 E6.36482
G1 X113.179 Y86.888 E6.39908
G1 X113.608 Y87.439 E6.4316
G1 X113.967 Y87.961 E6.4611
G1 X114.257 Y88.429 E6.48673
G1 X114.503 Y88.888 E6.51098
G1 X114.861 Y89.657 E6.55048
G1 X115.067 Y90.201 E6.57757
G1 X115.344 Y91.108 E6.62173
G1 X115.527 Y91.972 E6.66285
G1 X115.605 Y92.517 E6.68849
G1 X115.715 Y94.307 E6.77199
G1 X115.757 Y95.406 E6.82321
G1 X115.932 Y98.046 E6.9464
G1 X116.183 Y100.698 E7.07044
G1 X116.511 Y103.356 E7.19515
G1 X116.904 Y105.941 E7.3169
G1 X117.391 Y108.627 E7.44401
G1 X117.67 Y109.962 E7.50752
G1 X117.954 Y111.346 E7.57331
G1 X118.064 Y112.061 E7.60699
G1 X118.137 Y112.772 E7.64027
G1 X118.165 Y113.282 E7.66406
G1 X118.164 Y113.85 E7.69051
G1 X118.133 Y114.74 E7.73197
G1 X118.08 Y115.346 E7.7603
G1 X117.997 Y115.909 E7.7868
G1 X117.813 Y116.827 E7.83039
G1 X117.676 Y117.337 E7.85498
G1 X117.428 Y118.127 E7.89354
G1 X117.237 Y118.628 E7.91851
G1 X117.038 Y119.103 E7.94249
G1 X116.765 Y119.68 E7.97221
G1 X116.406 Y120.347 E8.00748
G1 X115.923 Y121.114 E8.04969
G1 X115.587 Y121.593 E8.07693
G1 X115.113 Y122.193 E8.11254
G1 X114.69 Y122.677 E8.14247
G1 X114.161 Y123.217 E8.17767
G1 X113.67 Y123.671 E8.20881
G1 X113.018 Y124.203 E8.24799
G1 X112.519 Y124.569 E8.2768
G1 X111.857 Y124.998 E8.31354
G1 X111.29 Y125.327 E8.34406
G1 X110.587 Y125.68 E8.38069
G1 X110.003 Y125.938 E8.41042
G1 X109.242 Y126.221 E8.44823
G1 X108.617 Y126.419 E8.47875
G1 X107.785 Y126.625 E8.51867
G1 X107.205 Y126.739 E8.54619
G1 X106.496 Y126.839 E8.57953
G1 X105.796 Y126.901 E8.61225
G1 X105.075 Y126.924 E8.64584
G1 X104.348 Y126.909 E8.6797
G1 X103.582 Y126.848 E8.71548
G1 X102.939 Y126.764 E8.74568
G1 X102.174 Y126.619 E8.78193
G1 X101.518 Y126.458 E8.81339
G1 X100.749 Y126.22 E8.85087
G1 X100.156 Y126.004 E8.88026
G1 X99.49 Y125.718 E8.91401
G1 X98.868 Y125.414 E8.94625
G1 X98.125 Y124.989 E8.9861
G1 X97.615 Y124.663 E9.01429
G1 X96.983 Y124.206 E9.0506
G1 X96.47 Y123.793 E9.08127
G1 X95.891 Y123.269 E9.11763
G1 X95.434 Y122.813 E9.14769
G1 X94.884 Y122.19 E9.18639
G1 X94.477 Y121.679 E9.21681
G1 X94.114 Y121.174 E9.24577
G1 X93.685 Y120.504 E9.28281
G1 X93.25 Y119.71 E9.32497
G1 X93.008 Y119.212 E9.35075
G1 X92.727 Y118.543 E9.38454
G1 X92.484 Y117.869 E9.4179
G1 X92.284 Y117.201 E9.45037
G1 X92.115 Y116.507 E9.48363
G1 X91.968 Y115.679 E9.52279
G1 X91.891 Y115.08 E9.55091
G1 X91.84 Y114.429 E9.58132
G1 X91.822 Y113.662 E9.61704
G1 X91.859 Y112.782 E9.65806
G1 X91.912 Y112.195 E9.6855
G1 X92.025 Y111.443 E9.72091
G1 X92.415 Y109.541 E9.81132
G1 X92.915 Y106.936 E9.93483
G1 X93.347 Y104.282 E10.06004
G1 X93.696 Y101.678 E10.18238
G1 X93.976 Y99.014 E10.30711
G1 X94.182 Y96.336 E10.43217
G1 X94.283 Y94.42 E10.52151
G1 X94.335 Y93.186 E10.57903
G1 X94.381 Y92.665 E10.60338
G1 X94.465 Y92.033 E10.63307
G1 X94.617 Y91.276 E10.66902
G1 X94.794 Y90.622 E10.70057
G1 X95.06 Y89.855 E10.73837
G1 X95.311 Y89.267 E10.76814
G1 X95.655 Y88.588 E10.80358
G1 X95.966 Y88.062 E10.83204
G1 X96.4 Y87.427 E10.86785
G1 X96.828 Y86.882 E10.90012
M204 S3000
M205 X10 Y10
G0 X97.268 Y87.228
M204 S1800
M205 X8 Y8
G1 X97.756 Y86.688 E10.93401
G1 X98.201 Y86.259 E10.96279
G1 X98.73 Y85.812 E10.99504
G1 X99.257 Y85.423 E11.02554
G1 X99.695 Y85.132 E11.05003
G1 X100.455 Y84.71 E11.09051
G1 X101.047 Y84.436 E11.12088
G1 X101.701 Y84.186 E11.15348
G1 X102.312 Y83.996 E11.18328
G1 X103.048 Y83.822 E11.21849
G1 X103.7 Y83.718 E11.24924
G1 X104.32 Y83.658 E11.27824
G1 X104.829 Y83.633 E11.30197
G1 X106.148 Y83.697 E11.36346
G1 X107.061 Y83.846 E11.40654
G1 X107.671 Y83.994 E11.43577
G1 X108.26 Y84.175 E11.46446
G1 X108.914 Y84.42 E11.49698
G1 X109.612 Y84.746 E11.53285
G1 X110.195 Y85.068 E11.56386
G1 X110.751 Y85.428 E11.5947
G1 X111.262 Y85.805 E11.62427
G1 X111.816 Y86.276 E11.65813
G1 X112.286 Y86.731 E11.68859
G1 X112.759 Y87.259 E11.7216
G1 X113.146 Y87.756 E11.75093
G1 X113.505 Y88.278 E11.78043
G1 X113.866 Y88.877 E11.813
G1 X114.19 Y89.524 E11.84669
G1 X114.418 Y90.055 E11.8736
G1 X114.682 Y90.823 E11.91142
G1 X114.849 Y91.443 E11.94131
G1 X114.977 Y92.078 E11.97148
G1 X115.071 Y92.809 E12.0058
G1 X115.156 Y94.337 E12.07706
G1 X115.197 Y95.429 E12.12794
G1 X115.372 Y98.062 E12.25081
G1 X115.63 Y100.788 E12.37832
G1 X115.952 Y103.4 E12.50086
G1 X116.361 Y106.091 E12.62761
G1 X116.833 Y108.697 E12.75093
G1 X117.122 Y110.077 E12.81658
G1 X117.405 Y111.459 E12.88227
G1 X117.509 Y112.136 E12.91416
G1 X117.58 Y112.826 E12.94646
G1 X117.607 Y113.491 E12.97745
G1 X117.574 Y114.72 E13.0347
G1 X117.525 Y115.268 E13.06032
G1 X117.445 Y115.811 E13.08587
G1 X117.271 Y116.685 E13.12737
G1 X117.139 Y117.179 E13.15118
G1 X116.903 Y117.932 E13.18792
G1 X116.721 Y118.411 E13.21178
G1 X116.522 Y118.886 E13.23576
G1 X116.263 Y119.432 E13.2639
G1 X115.915 Y120.078 E13.29807
G1 X115.456 Y120.805 E13.33811
G1 X115.13 Y121.27 E13.36455
G1 X114.681 Y121.837 E13.39823
G1 X114.27 Y122.307 E13.4273
G1 X113.769 Y122.818 E13.46062
G1 X113.293 Y123.257 E13.49077
G1 X112.673 Y123.762 E13.52801
G1 X112.19 Y124.116 E13.55589
G1 X111.561 Y124.523 E13.59078
G1 X111.011 Y124.841 E13.62036
G1 X110.347 Y125.173 E13.65493
G1 X109.778 Y125.425 E13.68391
G1 X109.059 Y125.692 E13.71962
G1 X108.451 Y125.884 E13.74931
G1 X107.662 Y126.079 E13.78715
G1 X107.1 Y126.189 E13.81382
G1 X106.428 Y126.283 E13.84541
G1 X105.75 Y126.343 E13.87711
G1 X105.068 Y126.364 E13.90888
G1 X104.363 Y126.349 E13.94172
G1 X103.639 Y126.29 E13.97554
G1 X103.013 Y126.209 E14.00493
G1 X102.29 Y126.071 E14.03921
G1 X101.654 Y125.915 E14.0697
G1 X100.926 Y125.688 E14.10521
G1 X100.35 Y125.479 E14.13374
G1 X99.721 Y125.208 E14.16563
G1 X99.117 Y124.912 E14.19695
G1 X98.413 Y124.509 E14.23472
G1 X97.919 Y124.193 E14.26203
G1 X97.32 Y123.759 E14.29647
G1 X96.824 Y123.359 E14.32614
G1 X96.274 Y122.86 E14.36072
G1 X95.832 Y122.419 E14.3898
G1 X95.311 Y121.828 E14.42648
G1 X94.917 Y121.333 E14.45594
G1 X94.575 Y120.856 E14.48327
G1 X94.159 Y120.205 E14.51925
G1 X93.747 Y119.452 E14.55921
G1 X93.513 Y118.97 E14.58416
G1 X93.247 Y118.335 E14.61622
G1 X93.012 Y117.683 E14.64849
G1 X92.824 Y117.052 E14.67915
G1 X92.66 Y116.377 E14.7115
G1 X92.521 Y115.593 E14.74857
G1 X92.447 Y115.011 E14.77589
G1 X92.399 Y114.395 E14.80466
G1 X92.382 Y113.653 E14.83922
G1 X92.418 Y112.818 E14.87814
G1 X92.47 Y112.248 E14.90479
G1 X92.577 Y111.538 E14.93822
G1 X92.963 Y109.655 E15.02773
G1 X93.467 Y107.028 E15.15228
G1 X93.899 Y104.377 E15.27735
G1 X94.253 Y101.737 E15.40138
G1 X94.536 Y99.046 E15.52738
G1 X94.739 Y96.409 E15.65053
G1 X94.842 Y94.449 E15.74192
G1 X94.895 Y93.21 E15.79967
G1 X95.02 Y92.106 E15.8514
G1 X95.157 Y91.423 E15.88384
G1 X95.334 Y90.769 E15.91539
G1 X95.575 Y90.075 E15.9496
G1 X95.826 Y89.487 E15.97937
G1 X96.137 Y88.873 E16.01142
G1 X96.448 Y88.347 E16.03987
G1 X96.84 Y87.773 E16.07224
G1 X97.268 Y87.228 E16.1045
M204 S3000
M205 X10 Y10
G1 F2400 E10.1045
G1 F600 Z0.275
;MESH:flow_calibrator.stl
G0 F2400 X105.277 Y120.251 Z0.275
M204 S1800
M205 X8 Y8
;TYPE:WALL-INNER
G1 F600 Z0.2
G1 F2400 E16.1045
G1 F1200 X104.792 Y120.245 E16.12709
G1 X104.563 Y120.242 E16.13775
G1 X103.941 Y120.168 E16.16692
G1 X103.856 Y120.157 E16.17091
G1 X103.165 Y119.994 E16.20397
G1 X103.053 Y119.954 E16.20951
G1 X102.494 Y119.756 E16.23712
G1 X102.257 Y119.643 E16.24935
G1 X101.853 Y119.448 E16.27024
G1 X101.505 Y119.23 E16.28936
G1 X101.263 Y119.078 E16.30266
G1 X100.814 Y118.724 E16.32929
G1 X100.687 Y118.623 E16.33684
G1 X100.189 Y118.133 E16.36938
G1 X100.157 Y118.094 E16.37172
G1 X99.739 Y117.581 E16.40254
G1 X99.633 Y117.418 E16.41159
G1 X99.345 Y116.974 E16.43623
G1 X99.197 Y116.678 E16.45164
G1 X99.038 Y116.36 E16.4682
G1 X98.864 Y115.891 E16.49149
G1 X98.782 Y115.672 E16.50238
G1 X98.63 Y115.069 E16.53134
G1 X98.613 Y115.002 E16.53456
G1 X98.515 Y114.292 E16.56793
G1 X98.511 Y114.167 E16.57375
G1 X98.492 Y113.573 E16.60143
G1 X98.513 Y113.308 E16.61381
G1 X98.549 Y112.865 E16.6345
G1 X98.627 Y112.459 E16.65375
G1 X98.683 Y112.17 E16.66746
G1 X98.849 Y111.633 E16.69363
G1 X98.889 Y111.506 E16.69983
G1 X99.176 Y110.842 E16.73352
G1 X99.182 Y110.829 E16.73418
G1 X99.202 Y110.793 E16.7361
G1 X99.523 Y110.229 E16.76632
G1 X99.647 Y110.059 E16.77612
G1 X99.948 Y109.645 E16.79995
G1 X100.179 Y109.39 E16.81597
G1 X100.423 Y109.12 E16.83292
G1 X100.791 Y108.794 E16.85581
G1 X100.947 Y108.655 E16.86554
G1 X101.48 Y108.28 E16.89588
G1 X101.54 Y108.238 E16.89929
G1 X102.158 Y107.894 E16.93223
G1 X102.279 Y107.843 E16.93834
G1 X102.809 Y107.62 E16.96512
G1 X103.08 Y107.54 E16.97828
G1 X103.482 Y107.421 E16.9978
G1 X103.912 Y107.343 E17.01815
G1 X104.198 Y107.291 E17.03168
G1 X104.762 Y107.252 E17.05801
G1 X104.901 Y107.242 E17.0645
G1 X105.615 Y107.269 E17.09777
G1 X105.675 Y107.278 E17.10059
G1 X106.312 Y107.375 E17.1306
G1 X106.517 Y107.429 E17.14047
G1 X107.005 Y107.558 E17.16397
G1 X107.334 Y107.684 E17.18037
G1 X107.669 Y107.813 E17.19709
G1 X108.112 Y108.041 E17.22029
G1 X108.294 Y108.135 E17.22983
G1 X108.837 Y108.497 E17.26022
G1 X108.891 Y108.533 E17.26324
G1 X109.433 Y108.985 E17.2961
G1 X109.531 Y109.087 E17.30269
G1 X109.926 Y109.498 E17.32923
G1 X110.102 Y109.726 E17.34264
G1 X110.363 Y110.064 E17.36253
G1 X110.586 Y110.432 E17.38256
G1 X110.733 Y110.673 E17.39571
G1 X110.976 Y111.192 E17.42239
G1 X111.034 Y111.314 E17.42868
G1 X111.263 Y111.984 E17.46165
G1 X111.278 Y112.054 E17.46499
G1 X111.417 Y112.677 E17.49471
G1 X111.441 Y112.894 E17.50488
G1 X111.494 Y113.37 E17.52718
G1 X111.485 Y113.761 E17.54539
G1 X111.467 Y114.469 E17.57837
G1 X111.441 Y114.629 E17.58591
G1 X111.356 Y115.151 E17.61054
G1 X111.267 Y115.469 E17.62592
G1 X111.164 Y115.833 E17.64353
G1 X110.986 Y116.277 E17.66581
G1 X110.895 Y116.504 E17.67719
G1 X110.609 Y117.044 E17.70565
G1 X110.569 Y117.118 E17.70956
G1 X110.161 Y117.713 E17.74316
G1 X110.09 Y117.796 E17.74824
G1 X109.702 Y118.247 E17.77595
G1 X109.512 Y118.426 E17.7881
G1 X109.18 Y118.738 E17.80932
G1 X108.856 Y118.979 E17.82812
G1 X108.607 Y119.165 E17.84259
G1 X108.139 Y119.442 E17.86791
G1 X108.007 Y119.52 E17.87505
G1 X107.366 Y119.81 E17.90781
G1 X107.351 Y119.817 E17.90858
G1 X107.313 Y119.829 E17.91044
G1 X106.677 Y120.037 E17.9416
G1 X106.492 Y120.075 E17.95039
G1 X105.979 Y120.182 E17.97479
G1 X105.648 Y120.214 E17.99028
G1 X105.277 Y120.251 E18.00764
M204 S3000
M205 X10 Y10
G0 F2400 X104.798 Y119.737
M204 S1800
M205 X8 Y8
G1 F1200 X105.26 Y119.723 E18.02751
G1 X105.598 Y119.712 E18.04196
G1 X105.89 Y119.663 E18.05457
G1 X106.388 Y119.578 E18.07623
G1 X106.521 Y119.537 E18.0821
G1 X107.153 Y119.341 E18.11058
G1 X107.787 Y119.047 E18.14067
G1 X107.879 Y119.004 E18.14493
G1 X108.322 Y118.721 E18.16753
G1 X108.553 Y118.573 E18.17925
G1 X108.837 Y118.333 E18.19521
G1 X109.164 Y118.057 E18.21361
