;FLAVOR:Marlin
;TIME:6273
;Filament used: 5.12694m
;Layer height: 0.28
;MINX:32.521
;MINY:15.875
;MINZ:0.28
;MAXX:202.484
;MAXY:219.191
;MAXZ:5.88
;Generated with Cura_SteamEngine 4.5.0
M140 S50
M105
M190 S50
M104 S200
M105
M109 S200
M82 ;absolute extrusion mode
; Ender 3 Custom Start G-code
G92 E0 ; Reset Extruder
G28 ; Home all axes
G1 Z2.0 F3000 ; Move Z Axis up little to prevent scratching of Heat Bed
G1 X0.1 Y20 Z0.3 F5000.0 ; Move to start position
G1 X0.1 Y200.0 Z0.3 F1500.0 E15 ; Draw the first line
G1 X0.4 Y200.0 Z0.3 F5000.0 ; Move to side a little
G1 X0.4 Y20 Z0.3 F1500.0 E30 ; Draw the second line
G92 E0 ; Reset Extruder
G1 Z2.0 F3000 ; Move Z Axis up little to prevent scratching of Heat Bed
G1 X5 Y20 Z0.3 F5000.0 ; Move over to prevent blob squish
G92 E0
G92 E0
G1 F2700 E-5
;LAYER_COUNT:21
;LAYER:0
M107
G0 F6000 X43.849 Y37.839 Z0.28
;TYPE:SKIRT
G1 F2700 E0
G1 F1200 X45.172 Y36.264 E0.09578
G1 X45.681 Y35.674 E0.13206
G1 X46.097 Y35.218 E0.1608
G1 X46.682 Y34.613 E0.19999
G1 X48.152 Y33.135 E0.29706
G1 X48.63 Y32.666 E0.32824
G1 X49.064 Y32.263 E0.35582
G1 X49.742 Y31.668 E0.39782
G1 X51.387 Y30.27 E0.49834
G1 X51.887 Y29.857 E0.52854
G1 X52.338 Y29.504 E0.55521
G1 X53.009 Y29.008 E0.59406
G1 X54.809 Y27.719 E0.69715
G1 X55.35 Y27.344 E0.72781
G1 X55.833 Y27.029 E0.75466
G1 X56.573 Y26.572 E0.79516
G1 X58.405 Y25.481 E0.89444
G1 X58.979 Y25.149 E0.92532
G1 X59.524 Y24.854 E0.95417
G1 X60.301 Y24.462 E0.9947
G1 X62.191 Y23.541 E1.0926
G1 X62.788 Y23.26 E1.12332
G1 X63.653 Y22.897 E1.167
G1 X64.58 Y22.6 E1.21233
G1 X65.112 Y22.455 E1.23801
G1 X65.464 Y22.366 E1.25491
G1 X71.99 Y20.817 E1.56723
G1 X73.542 Y20.475 E1.64123
G1 X74.043 Y20.375 E1.66502
G1 X79.992 Y19.215 E1.94725
G1 X82.03 Y18.859 E2.04359
G1 X88.043 Y17.921 E2.32696
G1 X90.149 Y17.636 E2.42592
G1 X96.216 Y16.932 E2.71032
G1 X98.297 Y16.733 E2.80766
G1 X104.318 Y16.268 E3.08886
G1 X106.521 Y16.143 E3.19161
G1 X112.54 Y15.914 E3.47208
G1 X114.658 Y15.875 E3.57072
G1 X120.761 Y15.875 E3.8549
G1 X122.095 Y15.896 E3.91702
G1 X128.91 Y16.164 E4.2346
G1 X131.105 Y16.296 E4.337
G1 X137.104 Y16.768 E4.6172
G1 X139.213 Y16.976 E4.71588
G1 X145.227 Y17.685 E4.99786
G1 X147.405 Y17.986 E5.10024
G1 X153.739 Y18.987 E5.39883
G1 X155.47 Y19.294 E5.4807
G1 X161.482 Y20.49 E5.76612
G1 X163.507 Y20.933 E5.86265
G1 X169.488 Y22.356 E6.14892
G1 X170.198 Y22.536 E6.18303
G1 X171.097 Y22.805 E6.22672
G1 X172.127 Y23.222 E6.27847
G1 X172.853 Y23.561 E6.31578
G1 X174.82 Y24.523 E6.41773
G1 X175.469 Y24.851 E6.45159
G1 X176.01 Y25.143 E6.48022
G1 X176.736 Y25.564 E6.5193
G1 X178.534 Y26.638 E6.61682
G1 X179.136 Y27.009 E6.64975
G1 X179.609 Y27.318 E6.67606
G1 X180.329 Y27.816 E6.71682
G1 X182.078 Y29.071 E6.81706
G1 X182.622 Y29.473 E6.84855
G1 X183.087 Y29.837 E6.87605
G1 X183.739 Y30.377 E6.91547
G1 X185.39 Y31.782 E7.01642
G1 X185.876 Y32.208 E7.04651
G1 X186.308 Y32.607 E7.0739
G1 X186.968 Y33.254 E7.11693
G1 X188.416 Y34.714 E7.21268
G1 X188.929 Y35.246 E7.24709
G1 X189.341 Y35.697 E7.27554
G1 X189.882 Y36.326 E7.31417
G1 X191.216 Y37.917 E7.41085
G1 X191.667 Y38.469 E7.44404
G1 X192.039 Y38.951 E7.47239
G1 X192.521 Y39.615 E7.5106
G1 X193.752 Y41.361 E7.61007
G1 X194.17 Y41.972 E7.64455
G1 X194.502 Y42.488 E7.67312
G1 X194.899 Y43.146 E7.7089
G1 X195.994 Y45.011 E7.8096
G1 X196.336 Y45.613 E7.84184
G1 X196.614 Y46.134 E7.86934
G1 X197.001 Y46.913 E7.90984
G1 X197.912 Y48.814 E8.008
G1 X198.211 Y49.463 E8.04128
G1 X198.444 Y50.007 E8.06883
G1 X198.766 Y50.821 E8.10959
G1 X199.507 Y52.777 E8.20699
G1 X199.841 Y53.703 E8.25283
G1 X199.918 Y53.935 E8.26421
G1 X200.048 Y54.355 E8.28468
G1 X200.774 Y56.879 E8.40698
G1 X200.936 Y57.472 E8.4356
G1 X201.145 Y58.387 E8.4793
G1 X201.246 Y59.051 E8.51058
G1 X201.365 Y60.064 E8.55807
G1 X201.897 Y65.587 E8.81644
G1 X202.07 Y67.884 E8.9237
G1 X202.346 Y72.989 E9.16175
G1 X202.419 Y75.245 E9.26686
G1 X202.484 Y80.361 E9.5051
G1 X202.475 Y82.014 E9.58207
G1 X202.293 Y87.979 E9.85996
G1 X202.2 Y89.866 E9.94793
G1 X201.803 Y95.229 E10.19834
G1 X201.589 Y97.481 E10.30367
G1 X201.013 Y102.459 E10.53701
G1 X200.704 Y104.705 E10.64258
G1 X199.862 Y110.036 E10.89389
G1 X199.632 Y111.339 E10.9555
G1 X198.487 Y117.009 E11.22485
G1 X197.977 Y119.279 E11.33319
G1 X196.757 Y124.225 E11.5704
G1 X196.156 Y126.454 E11.6779
G1 X194.727 Y131.348 E11.9153
G1 X194.028 Y133.563 E12.02345
G1 X192.32 Y138.615 E12.27177
G1 X191.861 Y139.901 E12.33535
G1 X189.782 Y145.283 E12.60401
G1 X188.88 Y147.472 E12.71425
G1 X186.863 Y152.099 E12.94929
G1 X185.886 Y154.213 E13.05773
G1 X183.513 Y159.09 E13.31028
G1 X182.946 Y160.203 E13.36844
G1 X180.924 Y163.948 E13.56662
G1 X179.734 Y166.226 E13.68629
G1 X178.627 Y168.502 E13.80414
G1 X177.58 Y170.819 E13.92254
G1 X176.626 Y173.098 E14.03758
G1 X175.705 Y175.482 E14.15658
G1 X174.873 Y177.845 E14.27324
G1 X174.107 Y180.225 E14.38966
G1 X173.398 Y182.658 E14.50766
G1 X172.765 Y185.089 E14.62463
G1 X172.198 Y187.553 E14.74237
G1 X171.699 Y190.03 E14.86002
G1 X171.282 Y192.466 E14.9751
G1 X170.922 Y194.991 E15.09387
G1 X170.635 Y197.512 E15.21201
G1 X170.514 Y198.817 E15.27304
G1 X170.43 Y199.811 E15.31949
G1 X170.356 Y200.456 E15.34972
G1 X170.177 Y201.668 E15.40677
G1 X170.03 Y202.518 E15.44693
G1 X169.831 Y203.434 E15.49058
G1 X169.632 Y204.106 E15.52322
G1 X169.184 Y205.441 E15.58879
G1 X168.965 Y206.043 E15.61862
G1 X168.607 Y206.909 E15.66225
G1 X168.307 Y207.508 E15.69344
G1 X167.642 Y208.732 E15.75831
G1 X167.318 Y209.295 E15.78855
G1 X166.816 Y210.087 E15.83222
G1 X166.406 Y210.639 E15.86424
G1 X165.567 Y211.691 E15.92689
G1 X165.115 Y212.231 E15.95968
G1 X164.483 Y212.924 E16.00336
G1 X163.981 Y213.399 E16.03554
G1 X162.962 Y214.297 E16.09878
G1 X162.445 Y214.731 E16.13021
G1 X161.702 Y215.303 E16.17387
G1 X161.173 Y215.653 E16.20341
G1 X160.192 Y216.256 E16.25703
G1 X159.422 Y216.705 E16.29853
G1 X158.592 Y217.143 E16.34223
G1 X157.964 Y217.417 E16.37414
G1 X156.881 Y217.846 E16.42838
G1 X156.056 Y218.15 E16.46932
G1 X155.163 Y218.436 E16.51298
G1 X154.473 Y218.602 E16.54603
G1 X153.138 Y218.872 E16.60945
G1 X152.459 Y218.992 E16.64156
G1 X151.53 Y219.116 E16.6852
G1 X150.865 Y219.155 E16.71622
G1 X149.481 Y219.191 E16.78068
G1 X148.809 Y219.191 E16.81198
G1 X147.872 Y219.151 E16.85565
G1 X147.241 Y219.079 E16.88522
G1 X146.068 Y218.906 E16.94043
G1 X145.214 Y218.759 E16.98078
G1 X143.984 Y218.473 E17.03958
G1 X142.744 Y218.109 E17.09976
G1 X140.269 Y217.417 E17.21942
G1 X137.771 Y216.795 E17.33929
G1 X135.316 Y216.254 E17.45635
G1 X132.907 Y215.798 E17.57052
G1 X130.357 Y215.388 E17.69078
G1 X127.912 Y215.065 E17.80562
G1 X125.362 Y214.802 E17.92499
G1 X122.881 Y214.616 E18.04084
G1 X120.36 Y214.499 E18.15835
G1 X117.838 Y214.454 E18.2758
G1 X115.343 Y214.479 E18.39199
G1 X112.795 Y214.577 E18.51072
G1 X110.332 Y214.742 E18.62567
G1 X107.766 Y214.986 E18.74569
G1 X105.309 Y215.291 E18.86098
G1 X102.824 Y215.67 E18.97803
G1 X100.31 Y216.127 E19.09701
G1 X97.887 Y216.639 E19.21232
G1 X95.455 Y217.225 E19.32881
G1 X91.824 Y218.234 E19.50429
G1 X91.145 Y218.438 E19.5373
G1 X89.888 Y218.737 E19.59747
G1 X88.717 Y218.94 E19.65281
G1 X87.864 Y219.067 E19.69296
G1 X86.931 Y219.166 E19.73665
G1 X86.27 Y219.187 E19.76745
G1 X84.861 Y219.181 E19.83306
G1 X84.195 Y219.162 E19.86408
G1 X83.26 Y219.095 E19.90773
G1 X82.623 Y219.003 E19.9377
G1 X81.461 Y218.796 E19.99266
G1 X80.578 Y218.615 E20.03463
G1 X79.668 Y218.388 E20.0783
G1 X79.005 Y218.168 E20.11083
G1 X77.715 Y217.692 E20.17485
G1 X77.11 Y217.452 E20.20516
G1 X76.254 Y217.069 E20.24883
G1 X75.638 Y216.737 E20.28141
G1 X74.439 Y216.035 E20.34611
G1 X73.886 Y215.693 E20.37638
G1 X73.11 Y215.167 E20.42004
G1 X72.592 Y214.757 E20.4508
G1 X71.54 Y213.866 E20.51499
G1 X71.023 Y213.405 E20.54725
G1 X70.35 Y212.752 E20.59091
G1 X69.901 Y212.246 E20.62241
G1 X69.042 Y211.212 E20.68501
G1 X68.623 Y210.683 E20.71643
G1 X68.073 Y209.923 E20.76011
G1 X67.706 Y209.329 E20.79263
G1 X67.034 Y208.152 E20.85574
G1 X66.721 Y207.573 E20.88638
G1 X66.311 Y206.73 E20.93003
G1 X66.054 Y206.083 E20.96245
G1 X65.587 Y204.779 E21.02695
G1 X65.376 Y204.14 E21.05828
G1 X65.12 Y203.238 E21.10194
G1 X64.99 Y202.613 E21.13167
G1 X64.788 Y201.452 E21.18654
G1 X64.657 Y200.577 E21.22774
G1 X64.577 Y199.902 E21.25939
G1 X64.452 Y198.467 E21.32646
G1 X64.19 Y195.923 E21.44555
G1 X63.86 Y193.414 E21.56338
G1 X63.463 Y190.946 E21.67978
G1 X62.993 Y188.47 E21.79713
G1 X62.459 Y186.035 E21.91321
G1 X61.844 Y183.563 E22.03183
G1 X61.168 Y181.141 E22.14891
G1 X60.431 Y178.764 E22.2648
G1 X59.609 Y176.357 E22.38323
G1 X58.728 Y173.997 E22.50053
G1 X57.784 Y171.672 E22.61738
G1 X56.764 Y169.349 E22.73551
G1 X55.706 Y167.114 E22.85065
G1 X54.053 Y163.905 E23.01874
G1 X52.266 Y160.591 E23.19406
G1 X51.314 Y158.738 E23.29106
G1 X49.016 Y154.006 E23.53601
G1 X48.095 Y152.008 E23.63846
G1 X45.978 Y147.138 E23.88572
G1 X45.23 Y145.319 E23.9773
G1 X43.295 Y140.301 E24.22773
G1 X42.577 Y138.311 E24.32624
G1 X40.849 Y133.193 E24.57778
G1 X40.333 Y131.568 E24.65717
G1 X38.72 Y126.02 E24.9262
G1 X38.304 Y124.49 E25.00003
G1 X36.918 Y118.845 E25.27069
G1 X36.574 Y117.332 E25.34294
G1 X35.432 Y111.65 E25.61281
G1 X35.12 Y109.936 E25.69393
G1 X34.236 Y104.314 E25.95893
G1 X34.01 Y102.693 E26.03514
G1 X33.931 Y102.021 E26.06665
G1 X33.34 Y96.802 E26.31122
G1 X33.167 Y94.986 E26.39617
G1 X32.793 Y89.627 E26.64631
G1 X32.682 Y87.352 E26.75237
G1 X32.537 Y82.282 E26.98855
G1 X32.521 Y79.925 E27.0983
G1 X32.589 Y74.918 E27.33147
G1 X32.673 Y72.545 E27.44203
G1 X32.954 Y67.521 E27.67634
G1 X33.135 Y65.182 E27.78558
G1 X33.654 Y59.883 E28.0335
G1 X33.729 Y59.214 E28.06485
G1 X33.874 Y58.288 E28.10849
G1 X33.987 Y57.78 E28.13273
G1 X34.226 Y56.877 E28.17622
G1 X34.864 Y54.66 E28.28364
G1 X35.059 Y54.015 E28.31502
G1 X35.249 Y53.443 E28.34309
G1 X35.534 Y52.661 E28.38184
G1 X36.292 Y50.671 E28.481
G1 X36.531 Y50.065 E28.51133
G1 X36.779 Y49.486 E28.54066
G1 X37.156 Y48.673 E28.58239
G1 X38.054 Y46.801 E28.67907
G1 X38.378 Y46.15 E28.71293
G1 X38.662 Y45.618 E28.74101
G1 X39.078 Y44.887 E28.78017
G1 X40.156 Y43.054 E28.87919
G1 X40.505 Y42.479 E28.91051
G1 X40.818 Y41.991 E28.93751
G1 X41.299 Y41.288 E28.97717
G1 X42.545 Y39.523 E29.07777
G1 X42.948 Y38.968 E29.10971
G1 X43.333 Y38.468 E29.1391
G1 X43.849 Y37.839 E29.17698
G0 F6000 X44.155 Y38.096
G1 F1200 X45.475 Y36.525 E29.27253
G1 X45.984 Y35.935 E29.30881
G1 X46.384 Y35.496 E29.33646
G1 X46.966 Y34.895 E29.37542
G1 X48.432 Y33.421 E29.47222
G1 X48.91 Y32.952 E29.50341
G1 X49.329 Y32.563 E29.53003
G1 X50.001 Y31.973 E29.57167
G1 X51.641 Y30.578 E29.67192
G1 X52.141 Y30.165 E29.70212
G1 X52.576 Y29.825 E29.72783
G1 X53.242 Y29.333 E29.76638
G1 X55.037 Y28.048 E29.86918
G1 X55.578 Y27.673 E29.89983
G1 X56.043 Y27.369 E29.9257
G1 X56.778 Y26.916 E29.9659
G1 X58.605 Y25.827 E30.06494
G1 X59.179 Y25.495 E30.09582
G1 X59.704 Y25.211 E30.12361
G1 X60.476 Y24.822 E30.16386
G1 X62.362 Y23.903 E30.26155
G1 X62.959 Y23.622 E30.29228
G1 X63.808 Y23.267 E30.33513
G1 X64.686 Y22.986 E30.37805
G1 X65.218 Y22.841 E30.40373
G1 X65.556 Y22.755 E30.41997
G1 X72.076 Y21.208 E30.732
G1 X73.621 Y20.868 E30.80566
G1 X74.119 Y20.768 E30.82931
G1 X80.061 Y19.609 E31.11121
G1 X82.091 Y19.254 E31.20717
G1 X88.097 Y18.318 E31.49021
G1 X90.195 Y18.033 E31.5888
G1 X96.254 Y17.33 E31.87283
G1 X98.328 Y17.132 E31.96984
G1 X104.341 Y16.668 E32.25066
G1 X106.536 Y16.543 E32.35304
G1 X112.547 Y16.314 E32.63314
G1 X114.658 Y16.275 E32.73145
G1 X120.756 Y16.275 E33.0154
G1 X122.08 Y16.296 E33.07706
G1 X128.886 Y16.563 E33.39422
G1 X131.074 Y16.694 E33.49628
G1 X137.065 Y17.166 E33.77611
G1 X139.166 Y17.373 E33.87442
G1 X145.172 Y18.081 E34.15602
G1 X147.342 Y18.381 E34.25802
G1 X153.67 Y19.381 E34.55634
G1 X155.392 Y19.686 E34.63777
G1 X161.397 Y20.881 E34.92287
G1 X163.415 Y21.322 E35.01905
G1 X169.39 Y22.744 E35.30505
G1 X170.1 Y22.924 E35.33915
G1 X170.982 Y23.189 E35.38204
G1 X171.959 Y23.585 E35.43112
G1 X172.678 Y23.921 E35.46808
G1 X174.639 Y24.88 E35.56973
G1 X175.288 Y25.208 E35.60359
G1 X175.809 Y25.49 E35.63117
G1 X176.531 Y25.908 E35.67002
G1 X178.324 Y26.979 E35.76727
G1 X178.926 Y27.35 E35.8002
G1 X179.382 Y27.647 E35.82554
G1 X180.096 Y28.141 E35.86596
G1 X181.841 Y29.393 E35.96597
G1 X182.385 Y29.795 E35.99747
G1 X182.833 Y30.145 E36.02394
G1 X183.48 Y30.681 E36.06306
G1 X185.126 Y32.083 E36.16374
G1 X185.612 Y32.509 E36.19383
G1 X186.028 Y32.894 E36.22023
G1 X186.684 Y33.536 E36.26297
G1 X188.128 Y34.991 E36.35842
G1 X188.641 Y35.523 E36.39283
G1 X189.038 Y35.958 E36.42026
G1 X189.576 Y36.583 E36.45866
G1 X190.907 Y38.17 E36.5551
G1 X191.358 Y38.722 E36.58829
G1 X191.716 Y39.187 E36.61562
G1 X192.195 Y39.846 E36.65356
G1 X193.422 Y41.587 E36.75273
G1 X193.84 Y42.198 E36.78721
G1 X194.159 Y42.695 E36.8147
G1 X194.554 Y43.348 E36.85024
G1 X195.647 Y45.209 E36.95074
G1 X195.989 Y45.811 E36.98298
G1 X196.256 Y46.313 E37.00945
G1 X196.64 Y47.086 E37.04964
G1 X197.548 Y48.982 E37.14753
G1 X197.847 Y49.631 E37.1808
G1 X198.072 Y50.155 E37.20736
G1 X198.392 Y50.963 E37.24783
G1 X199.132 Y52.914 E37.34499
G1 X199.355 Y53.523 E37.37519
G1 X199.538 Y54.061 E37.40165
G1 X199.664 Y54.466 E37.4214
G1 X200.388 Y56.985 E37.54344
G1 X200.55 Y57.578 E37.57207
G1 X200.754 Y58.475 E37.6149
G1 X200.848 Y59.099 E37.64428
G1 X200.967 Y60.102 E37.69132
G1 X201.498 Y65.617 E37.9493
G1 X201.67 Y67.906 E38.05619
G1 X201.946 Y73.002 E38.29383
G1 X202.019 Y75.25 E38.39856
G1 X202.084 Y80.359 E38.63648
G1 X202.075 Y82.002 E38.71298
G1 X201.893 Y87.961 E38.99059
G1 X201.801 Y89.837 E39.07805
G1 X201.405 Y95.192 E39.32808
G1 X201.191 Y97.435 E39.433
G1 X200.617 Y102.404 E39.66591
G1 X200.309 Y104.643 E39.77115
G1 X199.467 Y109.967 E40.02214
G1 X199.24 Y111.26 E40.08327
G1 X198.097 Y116.921 E40.35219
G1 X197.589 Y119.183 E40.46014
G1 X196.37 Y124.121 E40.69698
G1 X195.772 Y126.342 E40.80408
G1 X194.346 Y131.228 E41.04108
G1 X193.649 Y133.435 E41.14885
G1 X191.943 Y138.482 E41.39693
G1 X191.488 Y139.757 E41.45996
G1 X189.412 Y145.131 E41.72822
G1 X188.513 Y147.312 E41.83807
G1 X186.5 Y151.931 E42.07268
G1 X185.526 Y154.038 E42.18077
G1 X183.156 Y158.91 E42.43305
G1 X182.594 Y160.013 E42.49069
G1 X180.56 Y163.779 E42.69
G1 X179.377 Y166.045 E42.80902
G1 X178.267 Y168.328 E42.92723
G1 X177.232 Y170.619 E43.04429
G1 X176.244 Y172.979 E43.16342
G1 X175.319 Y175.371 E43.28284
G1 X174.497 Y177.704 E43.39802
G1 X173.731 Y180.086 E43.51453
G1 X173.011 Y182.56 E43.63451
G1 X172.374 Y185.003 E43.75207
G1 X171.809 Y187.455 E43.86924
G1 X171.306 Y189.955 E43.98798
G1 X170.885 Y192.413 E44.1041
G1 X170.527 Y194.925 E44.22225
G1 X170.239 Y197.455 E44.34082
G1 X170.108 Y198.868 E44.4069
G1 X170.031 Y199.778 E44.44942
G1 X169.96 Y200.399 E44.47853
G1 X169.783 Y201.599 E44.53501
G1 X169.636 Y202.449 E44.57518
G1 X169.44 Y203.349 E44.61807
G1 X169.252 Y203.98 E44.64873
G1 X168.808 Y205.304 E44.71375
G1 X168.589 Y205.906 E44.74358
G1 X168.237 Y206.757 E44.78646
G1 X167.955 Y207.318 E44.8157
G1 X167.295 Y208.532 E44.88004
G1 X166.971 Y209.095 E44.91029
G1 X166.478 Y209.872 E44.95314
G1 X166.093 Y210.39 E44.98319
G1 X165.26 Y211.435 E45.04542
G1 X164.808 Y211.975 E45.07821
G1 X164.187 Y212.654 E45.12105
G1 X163.715 Y213.1 E45.15129
G1 X162.705 Y213.991 E45.21401
G1 X162.188 Y214.425 E45.24544
G1 X161.458 Y214.985 E45.28828
G1 X160.962 Y215.313 E45.31597
G1 X159.991 Y215.911 E45.36907
G1 X159.221 Y216.36 E45.41057
G1 X158.406 Y216.789 E45.45346
G1 X157.816 Y217.046 E45.48343
G1 X156.743 Y217.47 E45.53715
G1 X155.918 Y217.774 E45.57809
G1 X155.041 Y218.055 E45.62097
G1 X154.392 Y218.21 E45.65204
G1 X153.069 Y218.478 E45.7149
G1 X152.39 Y218.598 E45.747
G1 X151.477 Y218.719 E45.78989
G1 X150.854 Y218.756 E45.81895
G1 X149.79 Y218.787 E45.86852
G1 X149.481 Y218.791 E45.8829
G1 X148.809 Y218.791 E45.9142
G1 X147.889 Y218.751 E45.95708
G1 X147.298 Y218.683 E45.98478
G1 X146.136 Y218.511 E46.03947
G1 X145.282 Y218.364 E46.07982
G1 X144.097 Y218.09 E46.13646
G1 X142.833 Y217.719 E46.1978
G1 X140.332 Y217.02 E46.31872
G1 X137.917 Y216.418 E46.43461
G1 X135.379 Y215.858 E46.55563
G1 X132.967 Y215.402 E46.66994
