; generated by PrusaSlicer 2.1.1 on 2020-04-16 at 12:23:16 UTC

; 

; external perimeters extrusion width = 0.45mm
; perimeters extrusion width = 0.45mm
; infill extrusion width = 0.45mm
; solid infill extrusion width = 0.45mm
; top infill extrusion width = 0.40mm
; first layer extrusion width = 0.45mm

M201 X1000 Y1000 Z1000 E5000 ; sets maximum accelerations, mm/sec^2
M203 X200 Y200 Z12 E120 ; sets maximum feedrates, mm/sec
M204 P1000 R1000 T1000 ; sets acceleration (P, T) and retract acceleration (R), mm/sec^2
M205 X8.00 Y8.00 Z0.40 E1.50 ; sets the jerk limits, mm/sec
M205 S0 T0 ; sets the minimum extruding and travel feed rate, mm/sec
M107
M117 Heating... ;Put printing message on LCD screen
;M300 S2500 P100; Beep
;M221 S95 ; Set flow
M104 S210 ; set extruder temp
M140 S60 ; set bed temp
G1 Z20 ; this is a good start heating position
G28 X Y; Home XY
M84 ; disable motors
M190 S60 ; wait for bed temp
M109 S210 ; wait for extruder temp

; Start of print
G21; metric values
G90 ; absolute positioning
M82; set extruder to absolute mode

G28;

; Prepare nozzle
G92 E0 ; Set extrusion distance to 0
G92 E0 ; Set extrusion distance to 0
G1 F1800 E3;
G92 E0 ; Set extrusion distance to 0
G90;


; You may want to adjust the X and Y here so the nozzle is really above the bed!
G1 X5.0 Y5.0 F7200 ; Move to a position in the left front of the bed
G1 Z0.6; Move nozzle above 0.6 mm of the bed

G91 ; Use relative mode
; Make some jerky zick-zack move at the beginning
; This is supposed to get rid of residue at the nozzle
G1 X1.0 Y5.0 Z-0.1 E-1.0 F7200 ; X6 Y10 Z0.1, retract a tiny bit / 120mm/s
G1 X1.0 Y-5.0 Z0.1 E2.0 F7200 ; X7 Y5 Z0.2 extrude a tiny bit
G1 X2.0 Y5.0 Z-0.1 F7200 ; X9 Y10 Z0.1
G1 X2.0 Y-5.0 Z0.1 F7200 ; X11 Y5 Z0.2
G1 X2.0 Y5.0 F7200 ; X13 Y10
G1 X2.0 Y-5.0 F7200 ; X15 Y5

; now print a line of filament to prepare extrusion
G1 Y50 E20 F1000 ; prints a line in the front
G1 Y50 E40 F1000 ; prints a line in the front

; Done with the dancing :)
G92 E0 ; Set extrusion distance to 0
G90 ; switch back to absolute mode

M117 Printing... ;Put printing message on LCD screen
; Start of actual GCode for the print
G21 ; set units to millimeters
G90 ; use absolute coordinates
M83 ; use relative distances for extrusion
M900 K200 ; Filament gcode
;BEFORE_LAYER_CHANGE
;Layer 0
;0.2mm
;Printing layer 0 at 0.2mm


G1 E-5.00000 F3600.00000
G1 Z0.500 F12000.000
;AFTER_LAYER_CHANGE
;Layer 0
;0.2mm
;Printing layer 0 at 0.2mm


G1 X19.332 Y24.727
G1 Z0.200
G1 E5.00000 F3600.00000
M204 S1000
G1 F1200
G1 X20.478 Y24.063 E0.04483
G1 X21.681 Y23.725 E0.04229
G1 X57.625 Y18.992 E1.22716
G1 X119.852 Y18.937 E2.10630
G1 X144.403 Y18.992 E0.83104
G1 X180.218 Y23.704 E1.22274
G1 X210.566 Y28.780 E1.04149
G1 X211.697 Y29.107 E0.03988
G1 X212.835 Y29.769 E0.04453
G1 X213.772 Y30.698 E0.04467
G1 X214.379 Y31.699 E0.03962
G1 X214.827 Y33.206 E0.05320
G1 X219.539 Y69.015 E1.22257
G1 X219.596 Y93.584 E0.83162
G1 X219.544 Y155.753 E2.10436
G1 X214.827 Y191.634 E1.22498
G1 X214.396 Y193.107 E0.05195
G1 X213.799 Y194.108 E0.03943
G1 X212.996 Y194.935 E0.03902
G1 X212.602 Y195.227 E0.01660
G1 X211.484 Y195.813 E0.04274
G1 X177.307 Y204.864 E1.19671
G1 X24.837 Y204.868 E5.16095
G1 X24.300 Y204.799 E0.01833
G1 X23.069 Y204.416 E0.04364
G1 X22.040 Y203.796 E0.04066
G1 X21.108 Y202.859 E0.04471
G1 X20.443 Y201.719 E0.04470
G1 X20.114 Y200.576 E0.04024
G1 X17.314 Y179.298 E0.72646
G1 X17.313 Y28.463 E5.10559
G1 X17.382 Y27.922 E0.01845
G1 X17.765 Y26.696 E0.04349
G1 X18.387 Y25.663 E0.04082
G1 X19.290 Y24.769 E0.04301
G1 E-3.50000 F3600.00000
G1 F9600
G1 X20.478 Y24.063 E-0.49249
G1 X21.681 Y23.725 E-0.44506
G1 X23.038 Y23.546 E-0.48745
G1 E-0.07500 F3600.00000
G1 Z0.700 F12000.000
G1 X202.337 Y93.812
G1 Z0.200
G1 E5.00000 F3600.00000
G1 F1200
G1 X202.722 Y93.544 E0.01590
G1 X203.145 Y93.388 E0.01526
G1 X203.417 Y93.345 E0.00933
G1 X203.846 Y93.358 E0.01453
G1 X204.093 Y93.415 E0.00855
G1 X212.328 Y96.360 E0.29605
G1 X212.557 Y96.478 E0.00871
G1 X212.910 Y96.759 E0.01526
G1 X213.191 Y97.136 E0.01592
G1 X213.367 Y97.572 E0.01594
G1 X213.423 Y97.997 E0.01449
G1 X213.420 Y127.177 E0.98771
G1 X213.364 Y127.603 E0.01455
G1 X213.188 Y128.038 E0.01590
G1 X212.919 Y128.399 E0.01522
G1 X212.714 Y128.584 E0.00934
G1 X212.346 Y128.808 E0.01461
G1 X204.078 Y131.759 E0.29716
G1 X203.637 Y131.829 E0.01511
G1 X203.189 Y131.787 E0.01522
G1 X202.924 Y131.707 E0.00937
G1 X202.544 Y131.510 E0.01447
G1 X202.344 Y131.350 E0.00868
G1 X202.168 Y131.167 E0.00859
G1 X201.922 Y130.792 E0.01519
G1 X201.779 Y130.363 E0.01530
G1 X201.747 Y130.108 E0.00870
G1 X201.754 Y95.365 E1.17601
G1 X201.738 Y95.052 E0.01061
G1 X201.823 Y94.616 E0.01503
G1 X201.919 Y94.379 E0.00865
G1 X202.044 Y94.155 E0.00868
G1 X202.298 Y93.858 E0.01323
G1 X202.286 Y94.555 F12000.000
G1 F1200
G1 X202.380 Y94.389 E0.00645
G1 X202.612 Y94.116 E0.01214
G1 X202.912 Y93.908 E0.01235
G1 X203.248 Y93.784 E0.01214
G1 X203.443 Y93.753 E0.00667
G1 X203.794 Y93.764 E0.01187
G1 X203.978 Y93.807 E0.00640
G1 X212.166 Y96.734 E0.29433
G1 X212.335 Y96.822 E0.00644
G1 X212.615 Y97.045 E0.01213
G1 X212.833 Y97.337 E0.01235
G1 X212.970 Y97.677 E0.01239
G1 X213.016 Y98.023 E0.01184
G1 X213.013 Y127.150 E0.98592
G1 X212.967 Y127.499 E0.01188
G1 X212.830 Y127.837 E0.01235
G1 X212.617 Y128.123 E0.01210
G1 X212.470 Y128.256 E0.00669
G1 X212.170 Y128.438 E0.01189
G1 X203.976 Y131.363 E0.29448
G1 X203.624 Y131.419 E0.01209
G1 X203.267 Y131.385 E0.01212
G1 X203.077 Y131.328 E0.00671
G1 X202.767 Y131.167 E0.01183
G1 X202.619 Y131.048 E0.00645
G1 X202.487 Y130.912 E0.00640
G1 X202.291 Y130.613 E0.01210
G1 X202.178 Y130.272 E0.01215
G1 X202.154 Y130.082 E0.00648
G1 X202.161 Y95.354 E1.17551
G1 X202.147 Y95.081 E0.00927
G1 X202.215 Y94.732 E0.01202
G1 X202.264 Y94.611 E0.00441
G1 X202.176 Y94.400 F12000.000
G1 E-3.50000 F3600.00000
G1 F9600
G1 X202.380 Y94.389 E-0.08917
G1 X202.612 Y94.116 E-0.12773
G1 X202.912 Y93.908 E-0.12999
G1 X203.248 Y93.784 E-0.12780
G1 X203.443 Y93.753 E-0.07024
G1 X203.794 Y93.764 E-0.12490
G1 X203.978 Y93.807 E-0.06735
G1 X205.796 Y94.457 E-0.68782
G1 E-0.07500 F3600.00000
G1 Z0.700 F12000.000
G1 X200.517 Y93.618
G1 X201.019 Y92.187
G1 X201.765 Y90.864
G1 X203.922 Y89.980
G1 X206.381 Y88.502
G1 X199.834 Y38.427
G1 X203.629 Y33.483
G1 X204.184 Y33.108
G1 X207.543 Y32.667
G1 X207.583 Y32.964
G1 X207.311 Y33.371
G1 Z0.200
G1 E5.00000 F3600.00000
G1 F1200
G1 X204.636 Y33.722 E0.09132
G1 X206.025 Y44.296 E0.36100
G1 X210.900 Y43.655 E0.16644
G1 X211.519 Y43.655 E0.02097
G1 X212.064 Y43.800 E0.01910
G1 X212.552 Y44.083 E0.01908
G1 X212.951 Y44.482 E0.01911
G1 X213.233 Y44.970 E0.01908
G1 X213.379 Y45.515 E0.01909
G1 X213.379 Y46.079 E0.01911
G1 X213.233 Y46.624 E0.01909
G1 X212.951 Y47.112 E0.01908
G1 X212.552 Y47.511 E0.01911
G1 X212.064 Y47.793 E0.01908
G1 X211.519 Y47.939 E0.01910
G1 X210.954 Y47.939 E0.01912
G1 X210.409 Y47.793 E0.01910
G1 X209.921 Y47.511 E0.01908
G1 X209.522 Y47.112 E0.01911
G1 X209.241 Y46.624 E0.01908
G1 X208.877 Y45.269 E0.04749
G1 X206.198 Y45.622 E0.09146
G1 X207.587 Y56.195 E0.36096
G1 X212.466 Y55.552 E0.16658
G1 X213.085 Y55.552 E0.02095
G1 X213.630 Y55.698 E0.01910
G1 X214.118 Y55.981 E0.01911
G1 X214.517 Y56.379 E0.01907
G1 X214.799 Y56.868 E0.01910
G1 X214.945 Y57.413 E0.01910
G1 X214.945 Y57.976 E0.01908
G1 X214.799 Y58.522 E0.01912
G1 X214.517 Y59.010 E0.01908
G1 X214.118 Y59.409 E0.01909
G1 X213.630 Y59.691 E0.01908
G1 X213.085 Y59.837 E0.01912
G1 X212.521 Y59.837 E0.01908
G1 X211.976 Y59.691 E0.01910
G1 X211.487 Y59.409 E0.01910
G1 X211.089 Y59.010 E0.01907
G1 X210.806 Y58.521 E0.01911
G1 X210.443 Y57.165 E0.04752
G1 X207.760 Y57.520 E0.09160
G1 X209.149 Y68.092 E0.36094
G1 X214.033 Y67.450 E0.16674
G1 X214.651 Y67.450 E0.02094
G1 X215.196 Y67.596 E0.01909
G1 X215.684 Y67.878 E0.01908
G1 X216.084 Y68.277 E0.01911
G1 X216.366 Y68.765 E0.01908
G1 X216.511 Y69.310 E0.01910
G1 X216.511 Y69.875 E0.01911
G1 X216.366 Y70.419 E0.01907
G1 X216.083 Y70.908 E0.01911
G1 X215.684 Y71.307 E0.01910
G1 X215.196 Y71.589 E0.01908
G1 X214.651 Y71.735 E0.01909
G1 X214.088 Y71.735 E0.01908
G1 X213.542 Y71.589 E0.01912
G1 X213.054 Y71.307 E0.01908
G1 X212.655 Y70.908 E0.01910
G1 X212.373 Y70.419 E0.01911
G1 X212.011 Y69.064 E0.04749
G1 X209.322 Y69.417 E0.09179
G1 X212.064 Y90.301 E0.71294
G1 X215.473 Y91.713 E0.12491
G1 X215.921 Y92.055 E0.01908
G1 X216.263 Y92.503 E0.01909
G1 X216.480 Y93.024 E0.01909
G1 X216.560 Y93.638 E0.02096
G1 X216.560 Y131.202 E1.27147
G1 X216.480 Y131.816 E0.02096
G1 X216.263 Y132.337 E0.01909
G1 X215.921 Y132.784 E0.01909
G1 X215.473 Y133.127 E0.01908
G1 X212.064 Y134.539 E0.12491
G1 X209.322 Y155.422 E0.71294
G1 X212.011 Y155.776 E0.09179
G1 X212.373 Y154.421 E0.04749
G1 X212.655 Y153.932 E0.01911
G1 X213.054 Y153.533 E0.01910
G1 X213.542 Y153.251 E0.01908
G1 X214.088 Y153.105 E0.01912
G1 X214.651 Y153.105 E0.01908
G1 X215.196 Y153.251 E0.01909
G1 X215.684 Y153.533 E0.01908
G1 X216.083 Y153.932 E0.01910
G1 X216.366 Y154.421 E0.01911
G1 X216.511 Y154.965 E0.01907
G1 X216.511 Y155.530 E0.01911
G1 X216.366 Y156.075 E0.01910
G1 X216.084 Y156.563 E0.01908
G1 X215.684 Y156.962 E0.01911
G1 X215.196 Y157.244 E0.01908
G1 X214.651 Y157.390 E0.01909
G1 X214.033 Y157.390 E0.02094
G1 X209.149 Y156.747 E0.16674
G1 X207.760 Y167.320 E0.36094
G1 X210.443 Y167.674 E0.09160
G1 X210.806 Y166.318 E0.04752
G1 X211.089 Y165.830 E0.01911
G1 X211.487 Y165.431 E0.01907
G1 X211.976 Y165.149 E0.01910
G1 X212.521 Y165.003 E0.01910
G1 X213.085 Y165.003 E0.01908
G1 X213.630 Y165.149 E0.01912
G1 X214.118 Y165.431 E0.01908
G1 X214.517 Y165.830 E0.01909
G1 X214.799 Y166.318 E0.01908
G1 X214.945 Y166.864 E0.01912
G1 X214.945 Y167.427 E0.01908
G1 X214.799 Y167.972 E0.01910
G1 X214.517 Y168.461 E0.01910
G1 X214.118 Y168.859 E0.01907
G1 X213.630 Y169.142 E0.01911
G1 X213.085 Y169.288 E0.01910
G1 X212.466 Y169.288 E0.02095
G1 X207.587 Y168.645 E0.16658
G1 X206.198 Y179.218 E0.36096
G1 X208.877 Y179.571 E0.09146
G1 X209.241 Y178.216 E0.04749
G1 X209.522 Y177.728 E0.01908
G1 X209.921 Y177.329 E0.01911
G1 X210.409 Y177.046 E0.01908
G1 X210.954 Y176.901 E0.01910
G1 X211.519 Y176.901 E0.01912
G1 X212.064 Y177.046 E0.01910
G1 X212.552 Y177.329 E0.01908
G1 X212.951 Y177.728 E0.01911
G1 X213.233 Y178.216 E0.01908
G1 X213.379 Y178.761 E0.01909
G1 X213.379 Y179.325 E0.01911
G1 X213.233 Y179.870 E0.01909
G1 X212.951 Y180.358 E0.01908
G1 X212.552 Y180.757 E0.01911
G1 X212.064 Y181.039 E0.01908
G1 X211.519 Y181.185 E0.01910
G1 X210.900 Y181.185 E0.02097
G1 X206.025 Y180.543 E0.16644
G1 X204.636 Y191.118 E0.36100
G1 X207.311 Y191.469 E0.09132
G1 X207.675 Y190.114 E0.04749
G1 X207.956 Y189.624 E0.01911
G1 X208.355 Y189.226 E0.01908
G1 X208.843 Y188.944 E0.01908
G1 X209.389 Y188.798 E0.01912
G1 X209.952 Y188.798 E0.01908
G1 X210.497 Y188.944 E0.01909
G1 X210.985 Y189.226 E0.01908
G1 X211.384 Y189.625 E0.01910
G1 X211.667 Y190.114 E0.01911
G1 X211.812 Y190.658 E0.01907
G1 X211.812 Y191.223 E0.01911
G1 X211.667 Y191.768 E0.01910
G1 X211.385 Y192.256 E0.01908
G1 X210.985 Y192.655 E0.01911
G1 X210.497 Y192.937 E0.01908
G1 X209.952 Y193.083 E0.01909
G1 X209.334 Y193.083 E0.02094
G1 X188.593 Y190.352 E0.70812
G1 X187.995 Y190.192 E0.02092
G1 X187.507 Y189.910 E0.01908
G1 X187.108 Y189.511 E0.01912
G1 X186.826 Y189.023 E0.01908
G1 X186.680 Y188.478 E0.01910
G1 X186.680 Y187.913 E0.01911
G1 X186.826 Y187.369 E0.01907
G1 X187.108 Y186.880 E0.01910
G1 X187.507 Y186.482 E0.01909
G1 X187.996 Y186.199 E0.01911
G1 X188.540 Y186.053 E0.01907
G1 X189.104 Y186.053 E0.01911
G1 X189.649 Y186.199 E0.01907
G1 X190.137 Y186.482 E0.01911
G1 X190.537 Y186.880 E0.01909
G1 X190.819 Y187.369 E0.01910
G1 X190.964 Y187.913 E0.01907
G1 X190.964 Y189.316 E0.04750
G1 X193.982 Y189.715 E0.10303
G1 X195.369 Y179.140 E0.36100
G1 X190.160 Y178.455 E0.17785
G1 X189.562 Y178.295 E0.02096
G1 X189.073 Y178.012 E0.01910
G1 X188.674 Y177.613 E0.01911
G1 X188.393 Y177.125 E0.01908
G1 X188.246 Y176.580 E0.01909
G1 X188.246 Y176.017 E0.01908
G1 X188.393 Y175.471 E0.01912
G1 X188.674 Y174.983 E0.01908
G1 X189.073 Y174.584 E0.01911
G1 X189.561 Y174.301 E0.01908
G1 X190.106 Y174.156 E0.01910
G1 X190.671 Y174.156 E0.01911
G1 X191.215 Y174.301 E0.01907
G1 X191.704 Y174.584 E0.01910
G1 X192.102 Y174.983 E0.01909
G1 X192.385 Y175.471 E0.01911
G1 X192.531 Y176.017 E0.01910
G1 X192.531 Y177.419 E0.04749
G1 X195.544 Y177.817 E0.10286
G1 X196.931 Y167.243 E0.36099
G1 X191.726 Y166.557 E0.17771
G1 X191.128 Y166.397 E0.02096
G1 X190.639 Y166.115 E0.01910
G1 X190.241 Y165.716 E0.01907
G1 X189.958 Y165.227 E0.01911
G1 X189.812 Y164.682 E0.01910
G1 X189.812 Y164.119 E0.01908
G1 X189.958 Y163.573 E0.01910
G1 X190.241 Y163.085 E0.01911
G1 X190.639 Y162.686 E0.01907
G1 X191.128 Y162.404 E0.01910
G1 X191.673 Y162.258 E0.01910
G1 X192.237 Y162.258 E0.01908
G1 X192.782 Y162.404 E0.01912
G1 X193.270 Y162.686 E0.01908
G1 X193.669 Y163.085 E0.01909
G1 X193.951 Y163.573 E0.01908
G1 X194.097 Y164.119 E0.01912
G1 X194.097 Y165.522 E0.04750
G1 X197.106 Y165.917 E0.10272
G1 X198.493 Y155.345 E0.36094
G1 X193.292 Y154.659 E0.17760
G1 X192.694 Y154.499 E0.02093
G1 X192.206 Y154.217 E0.01908
G1 X191.807 Y153.818 E0.01912
G1 X191.525 Y153.330 E0.01908
G1 X191.379 Y152.785 E0.01910
G1 X191.379 Y152.220 E0.01911
G1 X191.525 Y151.676 E0.01907
G1 X191.807 Y151.187 E0.01910
G1 X192.206 Y150.789 E0.01909
G1 X192.695 Y150.506 E0.01911
G1 X193.239 Y150.360 E0.01907
G1 X193.803 Y150.360 E0.01908
G1 X194.348 Y150.506 E0.01910
G1 X194.836 Y150.789 E0.01911
G1 X195.236 Y151.187 E0.01909
G1 X195.518 Y151.676 E0.01910
G1 X195.663 Y152.220 E0.01907
G1 X195.663 Y153.623 E0.04750
G1 X198.668 Y154.020 E0.10259
G1 X200.930 Y136.791 E0.58817
G1 X199.726 Y136.746 E0.04077
G1 X199.543 Y136.708 E0.00633
G1 X199.362 Y136.630 E0.00666
G1 X199.220 Y136.509 E0.00631
G1 X199.126 Y136.368 E0.00575
G1 X199.053 Y136.198 E0.00625
G1 X198.957 Y135.789 E0.01422
G1 X198.927 Y135.460 E0.01120
G1 X198.927 Y89.380 E1.55975
G1 X198.957 Y89.050 E0.01120
G1 X199.053 Y88.641 E0.01422
G1 X199.126 Y88.472 E0.00625
G1 X199.220 Y88.331 E0.00575
G1 X199.362 Y88.209 E0.00631
G1 X199.543 Y88.132 E0.00666
G1 X199.726 Y88.094 E0.00633
G1 X200.930 Y88.049 E0.04077
G1 X198.668 Y70.820 E0.58817
G1 X195.663 Y71.216 E0.10259
G1 X195.663 Y72.620 E0.04750
G1 X195.518 Y73.164 E0.01907
G1 X195.236 Y73.653 E0.01910
G1 X194.836 Y74.051 E0.01909
G1 X194.348 Y74.334 E0.01911
G1 X193.803 Y74.480 E0.01910
G1 X193.239 Y74.480 E0.01908
G1 X192.695 Y74.334 E0.01907
G1 X192.206 Y74.051 E0.01911
G1 X191.807 Y73.653 E0.01909
G1 X191.525 Y73.164 E0.01910
G1 X191.379 Y72.620 E0.01907
G1 X191.379 Y72.055 E0.01911
G1 X191.525 Y71.510 E0.01910
G1 X191.807 Y71.022 E0.01908
G1 X192.206 Y70.623 E0.01912
G1 X192.694 Y70.340 E0.01908
G1 X193.292 Y70.181 E0.02093
G1 X198.493 Y69.495 E0.17760
G1 X197.106 Y58.922 E0.36094
G1 X194.097 Y59.318 E0.10272
G1 X194.097 Y60.721 E0.04750
G1 X193.951 Y61.267 E0.01912
G1 X193.669 Y61.755 E0.01908
G1 X193.270 Y62.154 E0.01909
G1 X192.782 Y62.436 E0.01908
G1 X192.237 Y62.582 E0.01912
G1 X191.673 Y62.582 E0.01908
G1 X191.128 Y62.436 E0.01910
G1 X190.639 Y62.154 E0.01910
G1 X190.241 Y61.755 E0.01907
G1 X189.958 Y61.266 E0.01911
G1 X189.812 Y60.721 E0.01910
G1 X189.812 Y60.158 E0.01908
G1 X189.958 Y59.612 E0.01910
G1 X190.241 Y59.124 E0.01911
G1 X190.639 Y58.725 E0.01907
G1 X191.128 Y58.443 E0.01910
G1 X191.726 Y58.283 E0.02096
G1 X196.931 Y57.597 E0.17771
G1 X195.544 Y47.025 E0.36094
G1 X192.531 Y47.420 E0.10285
G1 X192.531 Y48.823 E0.04751
G1 X192.385 Y49.368 E0.01910
G1 X192.102 Y49.857 E0.01911
G1 X191.704 Y50.256 E0.01909
G1 X191.215 Y50.538 E0.01910
G1 X190.671 Y50.684 E0.01907
G1 X190.106 Y50.684 E0.01911
G1 X189.561 Y50.538 E0.01910
G1 X189.073 Y50.256 E0.01908
G1 X188.674 Y49.857 E0.01911
G1 X188.393 Y49.369 E0.01908
G1 X188.246 Y48.823 E0.01912
G1 X188.246 Y48.260 E0.01908
G1 X188.393 Y47.715 E0.01909
G1 X188.674 Y47.227 E0.01908
G1 X189.073 Y46.828 E0.01911
G1 X189.562 Y46.545 E0.01910
G1 X190.160 Y46.385 E0.02096
G1 X195.369 Y45.699 E0.17785
G1 X193.982 Y35.125 E0.36100
G1 X190.964 Y35.523 E0.10303
